suite-common/icons/assets/icons/everstakeLogo.svg

<svg xmlns="http://www.w3.org/2000/svg" fill="none" viewBox="0 0 32 28">
  <path fill="#494D4C" fill-rule="evenodd" d="M9.431.055C8.46.218 7.566.729 6.988 1.45 6.746 1.752.582 12.117.308 12.683a3.07 3.07 0 0 0-.15 2.25c.149.446 6.468 11.167 6.872 11.66.472.575 1.213 1.049 2.01 1.285.298.088.786.096 7.04.11 7.485.017 7.113.034 7.88-.347.281-.139.495-.302.782-.596.37-.38.598-.749 3.64-5.896 1.785-3.02 3.295-5.623 3.355-5.784.361-.966.339-2.022-.062-2.912-.09-.201-6.355-10.802-6.558-11.097C24.872 1 24.346.552 23.934.349c-.735-.361-.428-.348-7.694-.342-3.608.003-6.672.024-6.809.048M21.6 2.315c0 .079-5.915 10.015-6.047 10.158a1.4 1.4 0 0 1-.38.279c-.203.094-.467.099-5.632.1-3.401.001-5.527.021-5.707.055-.381.071-.876.319-1.199.599-.188.164-.238.19-.177.094.046-.073 1.411-2.385 3.034-5.136s2.969-4.983 2.992-4.96.811 1.351 1.753 2.949c1.194 2.029 1.774 2.964 1.92 3.097a1.136 1.136 0 0 0 1.522.037c.385-.318.53-.913.321-1.323-.052-.101-.719-1.245-1.483-2.542-1.502-2.55-1.673-2.782-2.275-3.103a3.2 3.2 0 0 0-.622-.241c-.277-.067.406-.076 5.833-.08 3.381-.003 6.147.005 6.147.017m2.526.498c-.108.356-.098.936.023 1.326.056.179.258.575.449.88s1.311 2.186 2.488 4.181l2.14 3.627-3.666.026-3.667.027-.254.15c-.14.082-.32.248-.4.369-.125.189-.146.275-.146.606 0 .342.019.412.161.617.105.152.26.282.449.378l.289.147h3.046c2.573 0 3.096-.013 3.364-.083.46-.119.735-.266 1.078-.576.286-.26.296-.265.189-.088-.062.103-1.425 2.407-3.028 5.12a666 666 0 0 1-2.956 4.975c-.043.044-5.946-9.879-6.043-10.157a1.4 1.4 0 0 1-.031-.441c.022-.262.263-.688 3.295-5.81 1.8-3.04 3.277-5.527 3.284-5.527s-.022.114-.064.253m-9.065 12.392c.423.117.54.294 3.287 4.955 2.831 4.802 2.887 4.886 3.52 5.223.167.089.433.197.591.239.256.069-.388.078-5.835.081-3.368.002-6.113-.014-6.101-.036l1.789-3.036c1.102-1.871 1.785-3.083 1.817-3.227.158-.704-.387-1.341-1.147-1.343a1.13 1.13 0 0 0-.972.514c-.084.124-1.001 1.665-2.037 3.425a302 302 0 0 1-1.962 3.307c-.074.102-.076.102-.042.003.02-.058.062-.274.094-.48.116-.751.162-.656-2.637-5.397-1.371-2.321-2.493-4.235-2.493-4.253 0-.062 11.903-.038 12.128.025"/>
</svg>

<svg xmlns="http://www.w3.org/2000/svg" fill="none" viewBox="0 0 32 28"><path d="M9.431 0.055 C 8.460 0.218,7.566 0.729,6.988 1.450 C 6.746 1.752,0.582 12.117,0.308 12.683 C -0.024 13.369,-0.081 14.219,0.158 14.933 C 0.307 15.379,6.626 26.100,7.030 26.593 C 7.502 27.168,8.243 27.642,9.040 27.878 C 9.338 27.966,9.826 27.974,16.080 27.988 C 23.565 28.005,23.193 28.022,23.960 27.641 C 24.241 27.502,24.455 27.339,24.742 27.045 C 25.112 26.665,25.340 26.296,28.382 21.149 C 30.167 18.129,31.677 15.526,31.737 15.365 C 32.098 14.399,32.076 13.343,31.675 12.453 C 31.585 12.252,25.320 1.651,25.117 1.356 C 24.872 1.000,24.346 0.552,23.934 0.349 C 23.199 -0.012,23.506 0.001,16.240 0.007 C 12.632 0.010,9.568 0.031,9.431 0.055 M21.600 2.315 C 21.600 2.394,15.685 12.330,15.553 12.473 C 15.461 12.572,15.291 12.698,15.173 12.752 C 14.970 12.846,14.706 12.851,9.541 12.852 C 6.140 12.853,4.014 12.873,3.834 12.907 C 3.453 12.978,2.958 13.226,2.635 13.506 C 2.447 13.670,2.397 13.696,2.458 13.600 C 2.504 13.527,3.869 11.215,5.492 8.464 C 7.115 5.713,8.461 3.481,8.484 3.504 C 8.507 3.527,9.295 4.855,10.237 6.453 C 11.431 8.482,12.011 9.417,12.157 9.550 C 12.596 9.951,13.219 9.966,13.679 9.587 C 14.064 9.269,14.209 8.674,14.000 8.264 C 13.948 8.163,13.281 7.019,12.517 5.722 C 11.015 3.172,10.844 2.940,10.242 2.619 C 10.072 2.528,9.792 2.420,9.620 2.378 C 9.343 2.311,10.026 2.302,15.453 2.298 C 18.834 2.295,21.600 2.303,21.600 2.315 M24.126 2.813 C 24.018 3.169,24.028 3.749,24.149 4.139 C 24.205 4.318,24.407 4.714,24.598 5.019 C 24.789 5.324,25.909 7.205,27.086 9.200 L 29.226 12.827 25.560 12.853 L 21.893 12.880 21.639 13.030 C 21.499 13.112,21.319 13.278,21.239 13.399 C 21.114 13.588,21.093 13.674,21.093 14.005 C 21.093 14.347,21.112 14.417,21.254 14.622 C 21.359 14.774,21.514 14.904,21.703 15.000 L 21.992 15.147 25.038 15.147 C 27.611 15.147,28.134 15.134,28.402 15.064 C 28.862 14.945,29.137 14.798,29.480 14.488 C 29.766 14.228,29.776 14.223,29.669 14.400 C 29.607 14.503,28.244 16.807,26.641 19.520 C 25.037 22.233,23.707 24.472,23.685 24.495 C 23.642 24.539,17.739 14.616,17.642 14.338 C 17.612 14.251,17.598 14.053,17.611 13.897 C 17.633 13.635,17.874 13.209,20.906 8.087 C 22.706 5.047,24.183 2.560,24.190 2.560 C 24.197 2.560,24.168 2.674,24.126 2.813 M15.061 15.205 C 15.484 15.322,15.601 15.499,18.348 20.160 C 21.179 24.962,21.235 25.046,21.868 25.383 C 22.035 25.472,22.301 25.580,22.459 25.622 C 22.715 25.691,22.071 25.700,16.624 25.703 C 13.256 25.705,10.511 25.689,10.523 25.667 C 10.536 25.645,11.340 24.279,12.312 22.631 C 13.414 20.760,14.097 19.548,14.129 19.404 C 14.287 18.700,13.742 18.063,12.982 18.061 C 12.579 18.060,12.237 18.240,12.010 18.575 C 11.926 18.699,11.009 20.240,9.973 22.000 C 8.937 23.760,8.054 25.248,8.011 25.307 C 7.937 25.409,7.935 25.409,7.969 25.310 C 7.989 25.252,8.031 25.036,8.063 24.830 C 8.179 24.079,8.225 24.174,5.426 19.433 C 4.055 17.112,2.933 15.198,2.933 15.180 C 2.933 15.118,14.836 15.142,15.061 15.205 " fill="#494D4C" stroke="none" fill-rule="evenodd"></path></svg>
